public/assets/badges/fiveProjectsVoted.svg

<svg fill="none" height="171" viewBox="0 0 134 171" width="134" xmlns="http://www.w3.org/2000/svg" xmlns:xlink="http://www.w3.org/1999/xlink"><filter id="a" color-interpolation-filters="sRGB" filterUnits="userSpaceOnUse" height="170.571" width="133.79" x="0" y="0"><feFlood flood-opacity="0" result="BackgroundImageFix"/><feColorMatrix in="SourceAlpha" type="matrix" values="0 0 0 0 0 0 0 0 0 0 0 0 0 0 0 0 0 0 127 0"/><feOffset dy="4"/><feColorMatrix type="matrix" values="0 0 0 0 0 0 0 0 0 0 0 0 0 0 0 0 0 0 0.15 0"/><feBlend in2="BackgroundImageFix" mode="normal" result="effect1_dropShadow"/><feBlend in="SourceGraphic" in2="effect1_dropShadow" mode="normal" result="shape"/></filter><filter id="b" color-interpolation-filters="sRGB" filterUnits="userSpaceOnUse" height="58.7631" width="50.1123" x="18.4702" y="33.7573"><feFlood flood-opacity="0" result="BackgroundImageFix"/><feColorMatrix in="SourceAlpha" type="matrix" values="0 0 0 0 0 0 0 0 0 0 0 0 0 0 0 0 0 0 127 0"/><feOffset dy="1"/><feColorMatrix type="matrix" values="0 0 0 0 0 0 0 0 0 0 0 0 0 0 0 0 0 0 0.15 0"/><feBlend in2="BackgroundImageFix" mode="normal" result="effect1_dropShadow"/><feBlend in="SourceGraphic" in2="effect1_dropShadow" mode="normal" result="shape"/></filter><filter id="c" color-interpolation-filters="sRGB" filterUnits="userSpaceOnUse" height="22.1099" width="22.1962" x="32.2036" y="41.6177"><feFlood flood-opacity="0" result="BackgroundImageFix"/><feColorMatrix in="SourceAlpha" type="matrix" values="0 0 0 0 0 0 0 0 0 0 0 0 0 0 0 0 0 0 127 0"/><feOffset dy="1"/><feColorMatrix type="matrix" values="0 0 0 0 0 0 0 0 0 0 0 0 0 0 0 0 0 0 0.15 0"/><feBlend in2="BackgroundImageFix" mode="normal" result="effect1_dropShadow"/><feBlend in="SourceGraphic" in2="effect1_dropShadow" mode="normal" result="shape"/></filter><filter id="d" color-interpolation-filters="sRGB" filterUnits="userSpaceOnUse" height="58.7631" width="50.1123" x="65.271" y="32.8618"><feFlood flood-opacity="0" result="BackgroundImageFix"/><feColorMatrix in="SourceAlpha" type="matrix" values="0 0 0 0 0 0 0 0 0 0 0 0 0 0 0 0 0 0 127 0"/><feOffset dy="1"/><feColorMatrix type="matrix" values="0 0 0 0 0 0 0 0 0 0 0 0 0 0 0 0 0 0 0.15 0"/><feBlend in2="BackgroundImageFix" mode="normal" result="effect1_dropShadow"/><feBlend in="SourceGraphic" in2="effect1_dropShadow" mode="normal" result="shape"/></filter><filter id="e" color-interpolation-filters="sRGB" filterUnits="userSpaceOnUse" height="22.1099" width="22.1962" x="79.0044" y="40.7222"><feFlood flood-opacity="0" result="BackgroundImageFix"/><feColorMatrix in="SourceAlpha" type="matrix" values="0 0 0 0 0 0 0 0 0 0 0 0 0 0 0 0 0 0 127 0"/><feOffset dy="1"/><feColorMatrix type="matrix" values="0 0 0 0 0 0 0 0 0 0 0 0 0 0 0 0 0 0 0.15 0"/><feBlend in2="BackgroundImageFix" mode="normal" result="effect1_dropShadow"/><feBlend in="SourceGraphic" in2="effect1_dropShadow" mode="normal" result="shape"/></filter><filter id="f" color-interpolation-filters="sRGB" filterUnits="userSpaceOnUse" height="72.7003" width="62.2053" x="35.8242" y="65.0498"><feFlood flood-opacity="0" result="BackgroundImageFix"/><feColorMatrix in="SourceAlpha" type="matrix" values="0 0 0 0 0 0 0 0 0 0 0 0 0 0 0 0 0 0 127 0"/><feOffset dy="1"/><feColorMatrix type="matrix" values="0 0 0 0 0 0 0 0 0 0 0 0 0 0 0 0 0 0 0.15 0"/><feBlend in2="BackgroundImageFix" mode="normal" result="effect1_dropShadow"/><feBlend in="SourceGraphic" in2="effect1_dropShadow" mode="normal" result="shape"/></filter><filter id="g" color-interpolation-filters="sRGB" filterUnits="userSpaceOnUse" height="27.2032" width="27.5516" x="52.8726" y="74.8064"><feFlood flood-opacity="0" result="BackgroundImageFix"/><feColorMatrix in="SourceAlpha" type="matrix" values="0 0 0 0 0 0 0 0 0 0 0 0 0 0 0 0 0 0 127 0"/><feOffset dy="1"/><feColorMatrix type="matrix" values="0 0 0 0 0 0 0 0 0 0 0 0 0 0 0 0 0 0 0.15 0"/><feBlend in2="BackgroundImageFix" mode="normal" result="effect1_dropShadow"/><feBlend in="SourceGraphic" in2="effect1_dropShadow" mode="normal" result="shape"/></filter><g filter="url(#a)"><path d="m87.7814 3h-42.1141c-2.6159 0-5.1276 1.02502-6.9966 2.85525l-32.66731 31.99005c-1.92085 1.881-3.00339 4.4562-3.00339 7.1447v77.866c0 2.751 1.1333 5.38 3.13315 7.27l32.51645 30.715c1.8564 1.753 4.3133 2.73 6.8669 2.73h44.2858c2.6061 0 5.1093-1.017 6.9764-2.835l30.9883-30.175c1.971-1.919 3.064-4.565 3.022-7.316l-1.189-78.4197c-.039-2.5909-1.082-5.0654-2.91-6.9022l-31.8202-31.97679c-1.8767-1.88599-4.4277-2.94631-7.0884-2.94631z" fill="#ffed00"/><path d="m87.7814 3h-42.1141c-2.6159 0-5.1276 1.02502-6.9966 2.85525l-32.66731 31.99005c-1.92085 1.881-3.00339 4.4562-3.00339 7.1447v77.866c0 2.751 1.1333 5.38 3.13315 7.27l32.51645 30.715c1.8564 1.753 4.3133 2.73 6.8669 2.73h44.2858c2.6061 0 5.1093-1.017 6.9764-2.835l30.9883-30.175c1.971-1.919 3.064-4.565 3.022-7.316l-1.189-78.4197c-.039-2.5909-1.082-5.0654-2.91-6.9022l-31.8202-31.97679c-1.8767-1.88599-4.4277-2.94631-7.0884-2.94631z" stroke="#eee" stroke-width="6"/></g><g filter="url(#b)"><g fill="#54bbab"><rect height="24.2426" rx="5" transform="matrix(.88378523 -.46789279 .46789279 .88378523 -27.582296 29.141196)" width="13.9944" x="44.8716" y="70.0952"/><rect height="24.2426" rx="5" transform="matrix(-.883785 -.467893 -.467893 .883785 42.1812 70.0952)" width="13.9944"/><circle cx="43.3038" cy="53.2867" r="16.5294" stroke="#eee" stroke-width="6"/></g><circle cx="43.3038" cy="53.2867" r="16.5294" stroke="#eee" stroke-width="6"/><g filter="url(#c)"><path d="m43.3016 41.6177 2.6199 8.0632h8.4782l-6.859 4.9834 2.6199 8.0632-6.859-4.9833-6.859 4.9833 2.6199-8.0632-6.859-4.9834h8.4782z" fill="#eee"/></g></g><g filter="url(#d)"><g fill="#54bbab"><rect height="24.2426" rx="5" transform="matrix(.88378523 -.46789279 .46789279 .88378523 -21.724354 50.934883)" width="13.9944" x="91.6724" y="69.1997"/><rect height="24.2426" rx="5" transform="matrix(-.883785 -.467893 -.467893 .883785 88.9819 69.1997)" width="13.9944"/><circle cx="90.1046" cy="52.3912" r="16.5294" stroke="#eee" stroke-width="6"/></g><circle cx="90.1046" cy="52.3912" r="16.5294" stroke="#eee" stroke-width="6"/><g filter="url(#e)"><path d="m90.1023 40.7222 2.62 8.0632h8.4777l-6.8586 4.9834 2.62 8.0632-6.8591-4.9833-6.859 4.9833 2.6199-8.0632-6.859-4.9834h8.4782z" fill="#eee"/></g></g><g filter="url(#f)"><g fill="#54bbab"><rect height="30.0917" rx="5" transform="matrix(.88378523 -.46789279 .46789279 .88378523 -43.569133 44.898124)" width="17.3709" x="68.5977" y="110.156"/><rect height="30.0917" rx="5" transform="matrix(-.883785 -.467893 -.467893 .883785 65.2559 110.156)" width="17.3709"/><circle cx="66.651" cy="89.2912" r="21.2413" stroke="#eee" stroke-width="6"/></g><circle cx="66.651" cy="89.2912" r="21.2413" stroke="#eee" stroke-width="6"/><g filter="url(#g)"><path d="m66.6483 74.8064 3.2521 10.0087h10.5237l-8.5139 6.1857 3.252 10.0092-8.5139-6.1862-8.5139 6.1862 3.252-10.0092-8.5139-6.1857h10.5238z" fill="#eee"/></g></g></svg>

<svg width="134" height="171" viewBox="0 0 134 171" fill="none" xmlns="http://www.w3.org/2000/svg">
<g filter="url(#filter0_d)">
<path d="M87.7814 3H45.6673C43.0514 3 40.5397 4.02502 38.6707 5.85525L6.00339 37.8453C4.08254 39.7263 3 42.3015 3 44.99V122.856C3 125.607 4.1333 128.236 6.13315 130.126L38.6496 160.841C40.506 162.594 42.9629 163.571 45.5165 163.571H89.8023C92.4084 163.571 94.9116 162.554 96.7787 160.736L127.767 130.561C129.738 128.642 130.831 125.996 130.789 123.245L129.6 44.8253C129.561 42.2344 128.518 39.7599 126.69 37.9231L94.8698 5.94631C92.9931 4.06032 90.4421 3 87.7814 3Z" fill="#FFED00"/>
<path d="M87.7814 3H45.6673C43.0514 3 40.5397 4.02502 38.6707 5.85525L6.00339 37.8453C4.08254 39.7263 3 42.3015 3 44.99V122.856C3 125.607 4.1333 128.236 6.13315 130.126L38.6496 160.841C40.506 162.594 42.9629 163.571 45.5165 163.571H89.8023C92.4084 163.571 94.9116 162.554 96.7787 160.736L127.767 130.561C129.738 128.642 130.831 125.996 130.789 123.245L129.6 44.8253C129.561 42.2344 128.518 39.7599 126.69 37.9231L94.8698 5.94631C92.9931 4.06032 90.4421 3 87.7814 3Z" stroke="#EEEEEE" stroke-width="6"/>
</g>
<g filter="url(#filter1_d)">
<rect x="44.8716" y="70.0952" width="13.9944" height="24.2426" rx="5" transform="rotate(-27.8976 44.8716 70.0952)" fill="#54BBAB"/>
<rect width="13.9944" height="24.2426" rx="5" transform="matrix(-0.883785 -0.467893 -0.467893 0.883785 42.1812 70.0952)" fill="#54BBAB"/>
<circle cx="43.3038" cy="53.2867" r="16.5294" fill="#54BBAB" stroke="#EEEEEE" stroke-width="6"/>
<circle cx="43.3038" cy="53.2867" r="16.5294" stroke="#EEEEEE" stroke-width="6"/>
<g filter="url(#filter2_d)">
<path d="M43.3016 41.6177L45.9215 49.6809L54.3997 49.6809L47.5407 54.6643L50.1606 62.7275L43.3016 57.7442L36.4426 62.7275L39.0625 54.6643L32.2035 49.6809L40.6817 49.6809L43.3016 41.6177Z" fill="#EEEEEE"/>
</g>
</g>
<g filter="url(#filter3_d)">
<rect x="91.6724" y="69.1997" width="13.9944" height="24.2426" rx="5" transform="rotate(-27.8976 91.6724 69.1997)" fill="#54BBAB"/>
<rect width="13.9944" height="24.2426" rx="5" transform="matrix(-0.883785 -0.467893 -0.467893 0.883785 88.9819 69.1997)" fill="#54BBAB"/>
<circle cx="90.1046" cy="52.3912" r="16.5294" fill="#54BBAB" stroke="#EEEEEE" stroke-width="6"/>
<circle cx="90.1046" cy="52.3912" r="16.5294" stroke="#EEEEEE" stroke-width="6"/>
<g filter="url(#filter4_d)">
<path d="M90.1023 40.7222L92.7223 48.7854L101.2 48.7854L94.3414 53.7688L96.9614 61.832L90.1023 56.8487L83.2433 61.832L85.8632 53.7688L79.0042 48.7854L87.4824 48.7854L90.1023 40.7222Z" fill="#EEEEEE"/>
</g>
</g>
<g filter="url(#filter5_d)">
<rect x="68.5977" y="110.156" width="17.3709" height="30.0917" rx="5" transform="rotate(-27.8976 68.5977 110.156)" fill="#54BBAB"/>
<rect width="17.3709" height="30.0917" rx="5" transform="matrix(-0.883785 -0.467893 -0.467893 0.883785 65.2559 110.156)" fill="#54BBAB"/>
<circle cx="66.651" cy="89.2912" r="21.2413" fill="#54BBAB" stroke="#EEEEEE" stroke-width="6"/>
<circle cx="66.651" cy="89.2912" r="21.2413" stroke="#EEEEEE" stroke-width="6"/>
<g filter="url(#filter6_d)">
<path d="M66.6483 74.8064L69.9004 84.8151H80.4241L71.9102 91.0008L75.1622 101.01L66.6483 94.8238L58.1344 101.01L61.3864 91.0008L52.8725 84.8151H63.3963L66.6483 74.8064Z" fill="#EEEEEE"/>
</g>
</g>
<defs>
<filter id="filter0_d" x="0" y="0" width="133.79" height="170.571" filterUnits="userSpaceOnUse" color-interpolation-filters="sRGB">
<feFlood flood-opacity="0" result="BackgroundImageFix"/>
<feColorMatrix in="SourceAlpha" type="matrix" values="0 0 0 0 0 0 0 0 0 0 0 0 0 0 0 0 0 0 127 0"/>
<feOffset dy="4"/>
<feColorMatrix type="matrix" values="0 0 0 0 0 0 0 0 0 0 0 0 0 0 0 0 0 0 0.15 0"/>
<feBlend mode="normal" in2="BackgroundImageFix" result="effect1_dropShadow"/>
<feBlend mode="normal" in="SourceGraphic" in2="effect1_dropShadow" result="shape"/>
</filter>
<filter id="filter1_d" x="18.4702" y="33.7573" width="50.1123" height="58.7631" filterUnits="userSpaceOnUse" color-interpolation-filters="sRGB">
<feFlood flood-opacity="0" result="BackgroundImageFix"/>
<feColorMatrix in="SourceAlpha" type="matrix" values="0 0 0 0 0 0 0 0 0 0 0 0 0 0 0 0 0 0 127 0"/>
<feOffset dy="1"/>
<feColorMatrix type="matrix" values="0 0 0 0 0 0 0 0 0 0 0 0 0 0 0 0 0 0 0.15 0"/>
<feBlend mode="normal" in2="BackgroundImageFix" result="effect1_dropShadow"/>
<feBlend mode="normal" in="SourceGraphic" in2="effect1_dropShadow" result="shape"/>
</filter>
<filter id="filter2_d" x="32.2036" y="41.6177" width="22.1962" height="22.1099" filterUnits="userSpaceOnUse" color-interpolation-filters="sRGB">
<feFlood flood-opacity="0" result="BackgroundImageFix"/>
<feColorMatrix in="SourceAlpha" type="matrix" values="0 0 0 0 0 0 0 0 0 0 0 0 0 0 0 0 0 0 127 0"/>
<feOffset dy="1"/>
<feColorMatrix type="matrix" values="0 0 0 0 0 0 0 0 0 0 0 0 0 0 0 0 0 0 0.15 0"/>
<feBlend mode="normal" in2="BackgroundImageFix" result="effect1_dropShadow"/>
<feBlend mode="normal" in="SourceGraphic" in2="effect1_dropShadow" result="shape"/>
</filter>
<filter id="filter3_d" x="65.271" y="32.8618" width="50.1123" height="58.7631" filterUnits="userSpaceOnUse" color-interpolation-filters="sRGB">
<feFlood flood-opacity="0" result="BackgroundImageFix"/>
<feColorMatrix in="SourceAlpha" type="matrix" values="0 0 0 0 0 0 0 0 0 0 0 0 0 0 0 0 0 0 127 0"/>
<feOffset dy="1"/>
<feColorMatrix type="matrix" values="0 0 0 0 0 0 0 0 0 0 0 0 0 0 0 0 0 0 0.15 0"/>
<feBlend mode="normal" in2="BackgroundImageFix" result="effect1_dropShadow"/>
<feBlend mode="normal" in="SourceGraphic" in2="effect1_dropShadow" result="shape"/>
</filter>
<filter id="filter4_d" x="79.0044" y="40.7222" width="22.1962" height="22.1099" filterUnits="userSpaceOnUse" color-interpolation-filters="sRGB">
<feFlood flood-opacity="0" result="BackgroundImageFix"/>
<feColorMatrix in="SourceAlpha" type="matrix" values="0 0 0 0 0 0 0 0 0 0 0 0 0 0 0 0 0 0 127 0"/>
<feOffset dy="1"/>
<feColorMatrix type="matrix" values="0 0 0 0 0 0 0 0 0 0 0 0 0 0 0 0 0 0 0.15 0"/>
<feBlend mode="normal" in2="BackgroundImageFix" result="effect1_dropShadow"/>
<feBlend mode="normal" in="SourceGraphic" in2="effect1_dropShadow" result="shape"/>
</filter>
<filter id="filter5_d" x="35.8242" y="65.0498" width="62.2053" height="72.7003" filterUnits="userSpaceOnUse" color-interpolation-filters="sRGB">
<feFlood flood-opacity="0" result="BackgroundImageFix"/>
<feColorMatrix in="SourceAlpha" type="matrix" values="0 0 0 0 0 0 0 0 0 0 0 0 0 0 0 0 0 0 127 0"/>
<feOffset dy="1"/>
<feColorMatrix type="matrix" values="0 0 0 0 0 0 0 0 0 0 0 0 0 0 0 0 0 0 0.15 0"/>
<feBlend mode="normal" in2="BackgroundImageFix" result="effect1_dropShadow"/>
<feBlend mode="normal" in="SourceGraphic" in2="effect1_dropShadow" result="shape"/>
</filter>
<filter id="filter6_d" x="52.8726" y="74.8064" width="27.5516" height="27.2032" filterUnits="userSpaceOnUse" color-interpolation-filters="sRGB">
<feFlood flood-opacity="0" result="BackgroundImageFix"/>
<feColorMatrix in="SourceAlpha" type="matrix" values="0 0 0 0 0 0 0 0 0 0 0 0 0 0 0 0 0 0 127 0"/>
<feOffset dy="1"/>
<feColorMatrix type="matrix" values="0 0 0 0 0 0 0 0 0 0 0 0 0 0 0 0 0 0 0.15 0"/>
<feBlend mode="normal" in2="BackgroundImageFix" result="effect1_dropShadow"/>
<feBlend mode="normal" in="SourceGraphic" in2="effect1_dropShadow" result="shape"/>
</filter>
</defs>
</svg>
